X: 14731
T: Gan Ainm
R: waltz
M: 3/4
K: Gmajor
D|G>AB/c/ e/d/B/D/B/D/|d/c/A/D/A/D/ c/B/G/D/G/D/|G>AB/c/ e/d/B/D/B/D/|d/c/A/D/A/D/G2||
D|G>AB/c/ dBd|cAf g/f/g/a/b|G>AB/c/ dBb|g/f/g/b/a/f/ g3||

